X:81
T:My Landlady. HSJJ.083
M:2/4
L:1/8
Q:1/4=100
S:HSJ Jackson,Wyresdale,Lancs.1823
R:.Country-dance
O:England
A:Lancashire
H:1823
Z:vmp.Chris Partington.
K:D
A|df d/e/f/g/|afdf|(gecA)|d/c/d/e/ dA|!
df d/e/f/g/|a/f/a/f/ df|ge c/A/c/A/|dfd:|!
|:a|.^g.g.g.g|ae2e|^dedB|cA2a|!
.^g.g.g.g|ae2e|^dedB|” DC”A2:|

